X:1
T:Minuet
T:Minuet
T:Michael Dabney
C:Michael Dabney
%%score 1 2
L:1/8
M:3/4
K:Bb
V:1 treble 
V:2 bass 
V:1
|: [DB]2 B,>CDE | F>GAF B2 | GedcBA |{A} B6 | E2 g4 | (gf)(ed)(cB) | ABcded | d2 [Fc]4 :: %8
 [FA]3 GAB | c>Bc>de>d | gfedcB | ABcA F2 | GEGBeG | FDFBdF | Ggfedc |{c} [DB]6 :| %16
V:2
|:"Bb" B,,6 |"^(F)" z2"F" F,2"Bb" D,2 |"Eb" E,2"F" F,2 F,,2 |"Bb" B,,2 B,,C,D,B,, |"Eb" G,4 E,2 | %5
"^Bb/d" D,2"Cm" C,2"Bb" B,,2 |"F" F,2 z2"Bb" B,,2 |"Bb" F,2"F" F,,4 ::"F" F,2 F,2 F,2 |"F" F,4 z2 | %10
"Eb" z2 E,2"Cm" C,2 |"F" F,2 z2 F,2 |"Eb" E,2 E,2 E,2 |"Bb" D,2 D,2 D,2 |"Eb" E,2"Bb" F,2"F" F,,2 | %15
"Bb" G,,6 :| %16

